svg/monochrome/telegram-alt.svg

<svg xmlns="http://www.w3.org/2000/svg" data-name="Layer 1" viewBox="0 0 24 24"><path class="uim-tertiary" d="M17.6875,21.74414a2.01908,2.01908,0,0,1-1.24121-.42676L12.416,18.19531,9.71387,21.17773a1.00011,1.00011,0,0,1-1.69825-.38281l-2.0205-6.68164-3.625-1.26074A2.042,2.042,0,0,1,2.2666,9.03516L20.18652,1.7998A2.04245,2.04245,0,0,1,22.958,4.09473l-3.2627,16.0166a2.05413,2.05413,0,0,1-2.00781,1.63281Z"/><path class="uim-primary" d="M8.97266,21.50586a.99968.99968,0,0,1-.957-.71l-2.168-7.15918A.9989.9989,0,0,1,6.34277,12.46L16.91016,6.958A.99975.99975,0,0,1,18.0791,8.55176l-7.083,7.083L9.95215,20.707a.99926.99926,0,0,1-.9336.79785C9.00293,21.50586,8.9873,21.50586,8.97266,21.50586Z"/></svg>

<svg xmlns="http://www.w3.org/2000/svg" viewBox="0 0 24 24"><path class="uim-tertiary" d="M17.688 21.744a2.02 2.02 0 0 1-1.242-.427l-4.03-3.122-2.702 2.983a1 1 0 0 1-1.698-.383l-2.02-6.682-3.626-1.26a2.042 2.042 0 0 1-.103-3.818L20.187 1.8a2.042 2.042 0 0 1 2.771 2.295L19.695 20.11a2.054 2.054 0 0 1-2.008 1.633Z"/><path class="uim-primary" d="M8.973 21.506a1 1 0 0 1-.957-.71l-2.168-7.16a.999.999 0 0 1 .495-1.176L16.91 6.958a1 1 0 0 1 1.17 1.594l-7.084 7.083-1.044 5.072a1 1 0 0 1-.933.798h-.046Z"/></svg>
